X:160
T: Tom Cawley's
S: Treoir 32/4
Z: B.Black
M: 6/8
L: 1/8
R: jig
K: G
D | GBB BAB | GBB BAG | FAA A2 D | FAA A2 D |
GBB BAB | GBB BAG | def gdc | BGG G2 :|
g | aba  afd | gag gfe | d^cd gdB | BAA A2 g |
aba afd | gag gfe | d^cd gd=c | BGG G2 :|
